X: 11966
T: End Of The Festival, The
R: jig
M: 6/8
K: Bminor
|:FGB dBA|FBB B2 A|FGB dBA|Bde f2 A|
FGB dBA|FBB B2 A|GFE FED|EEE E2 D:|
|:Bdg fed|agf gfe|Bdg fed|edA B2 A|
Bdg fed|agf gfe|dcB cBA|FBB B3:|

